Yaru++/devices/symbolic/media-tape-symbolic.svg

<svg height="16" width="16" xmlns="http://www.w3.org/2000/svg">
  <g fill="#808080">
    <path d="m3.994 3c-1.258.015-2.179-.03-2.931.385a1.88 1.88 0 0 0 -.838.998c-.165.439-.225.96-.225 1.617v5c0 .658.06 1.179.225 1.617.164.439.461.79.838.998.752.416 1.673.37 2.931.385h8.012c1.258-.014 2.179.03 2.932-.385a1.88 1.88 0 0 0 .838-.998c.164-.438.224-.96.224-1.617v-5c0-.658-.06-1.178-.225-1.617a1.88 1.88 0 0 0 -.837-.998c-.753-.416-1.674-.37-2.932-.385h-8.008zm.006 1h8c1.259.015 2.087.06 2.453.262.184.101.29.213.387.472.097.26.16.674.16 1.266v5c0 .592-.063 1.006-.16 1.266-.098.26-.203.371-.387.472-.366.202-1.194.247-2.453.262h-8c-1.258-.015-2.09-.06-2.455-.262-.183-.1-.287-.212-.385-.472-.097-.26-.16-.674-.16-1.266v-5c0-.592.063-1.006.16-1.266.098-.26.202-.371.385-.472.365-.202 1.195-.247 2.455-.262z"/>
    <path d="m4.5 6c1.375 0 2.5 1.125 2.5 2.5 0 .565-.212 1.08-.531 1.5h3.061c-.318-.42-.53-.935-.53-1.5 0-1.375 1.125-2.5 2.5-2.5s2.5 1.125 2.5 2.5-1.125 2.5-2.5 2.5h-7a2.508 2.508 0 0 1 -2.5-2.5c0-1.375 1.125-2.5 2.5-2.5zm0 1c-.834 0-1.5.666-1.5 1.5s.666 1.5 1.5 1.5 1.5-.666 1.5-1.5-.666-1.5-1.5-1.5zm7 0c-.834 0-1.5.666-1.5 1.5s.666 1.5 1.5 1.5 1.5-.666 1.5-1.5-.666-1.5-1.5-1.5z"/>
  </g>
</svg>

<svg height="16" width="16" xmlns="http://www.w3.org/2000/svg">
    <g fill="gray">
        <path d="M3.994 3c-1.258.015-2.179-.03-2.931.385a1.88 1.88 0 0 0-.838.998C.06 4.822 0 5.343 0 6v5c0 .658.06 1.179.225 1.617.164.439.461.79.838.998.752.416 1.673.37 2.931.385H12.006c1.258-.014 2.179.03 2.932-.385a1.88 1.88 0 0 0 .838-.998c.164-.438.224-.96.224-1.617V6c0-.658-.06-1.178-.225-1.617a1.88 1.88 0 0 0-.837-.998c-.753-.416-1.674-.37-2.932-.385H3.998zM4 4h8c1.259.015 2.087.06 2.453.262.184.101.29.213.387.472.097.26.16.674.16 1.266v5c0 .592-.063 1.006-.16 1.266-.098.26-.203.371-.387.472-.366.202-1.194.247-2.453.262H4c-1.258-.015-2.09-.06-2.455-.262-.183-.1-.287-.212-.385-.472C1.063 12.006 1 11.592 1 11V6c0-.592.063-1.006.16-1.266.098-.26.202-.371.385-.472C1.91 4.06 2.74 4.015 4 4z" style="line-height:normal;font-variant-ligatures:normal;font-variant-position:normal;font-variant-caps:normal;font-variant-numeric:normal;font-variant-alternates:normal;font-feature-settings:normal;text-indent:0;text-align:start;text-decoration-line:none;text-decoration-style:solid;text-decoration-color:#000;text-transform:none;text-orientation:mixed;shape-padding:0;isolation:auto;mix-blend-mode:normal;marker:none" color="#000" font-weight="400" font-family="sans-serif" white-space="normal" overflow="visible"/>
        <path d="M4.5 6C5.875 6 7 7.125 7 8.5c0 .565-.212 1.08-.531 1.5H9.53C9.212 9.58 9 9.065 9 8.5 9 7.125 10.125 6 11.5 6S14 7.125 14 8.5 12.875 11 11.5 11h-7A2.508 2.508 0 0 1 2 8.5C2 7.125 3.125 6 4.5 6zm0 1C3.666 7 3 7.666 3 8.5S3.666 10 4.5 10 6 9.334 6 8.5 5.334 7 4.5 7zm7 0c-.834 0-1.5.666-1.5 1.5s.666 1.5 1.5 1.5S13 9.334 13 8.5 12.334 7 11.5 7z"/>
    </g>
</svg>
